; G-Code generated by Simplify3D(R) Version 4.0.0
; Dec 11, 2018 at 3:47:48 PM
; Settings Summary
;   processName,Color1
;   applyToModels,Small textile polygones_2_Layer 1,Small textile polygones_2_Layer 3,Small textile polygones_2_Layer 5,Small textile polygones_2_Layer 7
;   profileName,X400 DD2 Textiles (modified)
;   profileVersion,2018-11-06 17:34:41
;   baseProfile,Default
;   printMaterial,PLA(left) Layfomm(right)
;   printQuality,High
;   printExtruders,All Extruders
;   extruderName,Extruder 1,Extruder 2
;   extruderToolheadNumber,0,1
;   extruderDiameter,0.4,0.4
;   extruderAutoWidth,1,1
;   extruderWidth,0.48,0.48
;   extrusionMultiplier,0.9,1
;   extruderUseRetract,1,1
;   extruderRetractionDistance,1,1
;   extruderExtraRestartDistance,0,0
;   extruderRetractionZLift,1,1
;   extruderRetractionSpeed,1800,1800
;   extruderUseCoasting,0,0
;   extruderCoastingDistance,0.2,0.2
;   extruderUseWipe,0,0
;   extruderWipeDistance,5,5
;   primaryExtruder,0
;   layerHeight,0.15
;   topSolidLayers,11
;   bottomSolidLayers,11
;   perimeterOutlines,11
;   printPerimetersInsideOut,1
;   startPointOption,2
;   startPointOriginX,0
;   startPointOriginY,0
;   sequentialIslands,0
;   spiralVaseMode,0
;   firstLayerHeightPercentage,100
;   firstLayerWidthPercentage,125
;   firstLayerUnderspeed,0.4
;   useRaft,0
;   raftExtruder,0
;   raftTopLayers,3
;   raftBaseLayers,2
;   raftOffset,3
;   raftSeparationDistance,0.14
;   raftTopInfill,100
;   aboveRaftSpeedMultiplier,0.3
;   useSkirt,0
;   skirtExtruder,0
;   skirtLayers,1
;   skirtOutlines,2
;   skirtOffset,4
;   usePrimePillar,0
;   primePillarExtruder,999
;   primePillarWidth,12
;   primePillarLocation,7
;   primePillarSpeedMultiplier,1
;   useOozeShield,1
;   oozeShieldExtruder,999
;   oozeShieldOffset,7
;   oozeShieldOutlines,2
;   oozeShieldSidewallShape,0
;   oozeShieldSidewallAngle,30
;   oozeShieldSpeedMultiplier,1
;   infillExtruder,0
;   internalInfillPattern,Grid
;   externalInfillPattern,Rectilinear
;   infillPercentage,50
;   outlineOverlapPercentage,15
;   infillExtrusionWidthPercentage,100
;   minInfillLength,5
;   infillLayerInterval,2
;   internalInfillAngles,45,-45
;   overlapInternalInfillAngles,1
;   externalInfillAngles,45,-45
;   generateSupport,0
;   supportExtruder,0
;   supportInfillPercentage,40
;   supportExtraInflation,0
;   supportBaseLayers,0
;   denseSupportExtruder,0
;   denseSupportLayers,0
;   denseSupportInfillPercentage,70
;   supportLayerInterval,1
;   supportHorizontalPartOffset,0.3
;   supportUpperSeparationLayers,1
;   supportLowerSeparationLayers,1
;   supportType,0
;   supportGridSpacing,4
;   maxOverhangAngle,45
;   supportAngles,0
;   temperatureName,Extruder 1,Extruder 2,Heated Bed
;   temperatureNumber,0,1,2
;   temperatureSetpointCount,1,1,1
;   temperatureSetpointLayers,1,1,1
;   temperatureSetpointTemperatures,200,210,60
;   temperatureStabilizeAtStartup,1,1,1
;   temperatureHeatedBed,0,0,1
;   temperatureRelayBetweenLayers,0,0,0
;   temperatureRelayBetweenLoops,0,0,0
;   fanLayers,1,2
;   fanSpeeds,0,100
;   blipFanToFullPower,0
;   adjustSpeedForCooling,1
;   minSpeedLayerTime,15
;   minCoolingSpeedSlowdown,20
;   increaseFanForCooling,0
;   minFanLayerTime,45
;   maxCoolingFanSpeed,100
;   increaseFanForBridging,0
;   bridgingFanSpeed,100
;   use5D,1
;   relativeEdistances,0
;   allowEaxisZeroing,1
;   independentExtruderAxes,0
;   includeM10123,0
;   stickySupport,1
;   applyToolheadOffsets,1
;   gcodeXoffset,0
;   gcodeYoffset,0
;   gcodeZoffset,0
;   overrideMachineDefinition,1
;   machineTypeOverride,0
;   strokeXoverride,350
;   strokeYoverride,350
;   strokeZoverride,350
;   originOffsetXoverride,0
;   originOffsetYoverride,0
;   originOffsetZoverride,0
;   homeXdirOverride,-1
;   homeYdirOverride,-1
;   homeZdirOverride,-1
;   flipXoverride,1
;   flipYoverride,-1
;   flipZoverride,1
;   toolheadOffsets,0,0|2.5,0|0,0|0,0|0,0|0,0
;   overrideFirmwareConfiguration,1
;   firmwareTypeOverride,RepRap (Marlin/Repetier/Sprinter)
;   GPXconfigOverride,r2
;   baudRateOverride,115200
;   overridePrinterModels,0
;   printerModelsOverride
;   startingGcode,G28 ; home all axes
;   layerChangeGcode,
;   retractionGcode,
;   toolChangeGcode,G1 Y10 F4000; go to Y 10mm,{IF NEWTOOL = 0}M104 S170 T1,{IF NEWTOOL = 0}M109 S200 T0,{IF NEWTOOL = 1}M104 S170 T0,{IF NEWTOOL =1 }M109 S210 T1
;   endingGcode,G28 X0 ; home X axis,G28 Y0 ; home Y axis,M104 S0 T0 ; turn off extruder,M104 S0 T1 ; turn off extruder,M140 S0 ; turn off bed,M106 S0 ; turn off fan,M84 ; disable motors
;   exportFileFormat,gcode
;   celebration,0
;   celebrationSong,Take On Me
;   postProcessing,
;   defaultSpeed,2002
;   outlineUnderspeed,0.5
;   solidInfillUnderspeed,0.8
;   supportUnderspeed,0.8
;   rapidXYspeed,4800
;   rapidZspeed,1002
;   minBridgingArea,50
;   bridgingExtraInflation,0
;   bridgingExtrusionMultiplier,1
;   bridgingSpeedMultiplier,1
;   useFixedBridgingAngle,0
;   fixedBridgingAngle,0
;   applyBridgingToPerimeters,0
;   filamentDiameters,1.75|1.75|1.75|1.75|1.75|1.75
;   filamentPricesPerKg,46|46|46|46|46|46
;   filamentDensities,1.25|1.25|1.25|1.25|1.25|1.25
;   useMinPrintHeight,0
;   minPrintHeight,0
;   useMaxPrintHeight,0
;   maxPrintHeight,0.5
;   useDiaphragm,0
;   diaphragmLayerInterval,20
;   robustSlicing,1
;   mergeAllIntoSolid,0
;   onlyRetractWhenCrossingOutline,1
;   retractBetweenLayers,1
;   useRetractionMinTravel,0
;   retractionMinTravel,3
;   retractWhileWiping,0
;   onlyWipeOutlines,1
;   avoidCrossingOutline,0
;   maxMovementDetourFactor,3
;   toolChangeRetractionDistance,15
;   toolChangeExtraRestartDistance,0
;   toolChangeRetractionSpeed,600
;   externalThinWallType,1
;   internalThinWallType,2
;   thinWallAllowedOverlapPercentage,10
;   singleExtrusionMinLength,1
;   singleExtrusionMinPrintingWidthPercentage,50
;   singleExtrusionMaxPrintingWidthPercentage,200
;   singleExtrusionEndpointExtension,0.2
;   horizontalSizeCompensation,0
G90
M82
M106 S0
M140 S60
M190 S60
M104 S200 T0
M104 S210 T1
M109 S200 T0
M109 S210 T1
G28 ; home all axes
G92 E0
G1 E-1.0000 F1800
G1 Z1.150 F1002
; process Color1
G1 Y10 F4000; go to Y 10mm
M104 S170 T1
M109 S200 T0
T0
; tool H0.150 W0.600
; external single extrusion
G1 X124.619 Y123.366 F4800
G1 Z0.150 F1002
G1 E0.0000 F540
G92 E0
; tool H0.150 W0.960
G1 X124.691 Y123.294 E0.0055 F400
G1 X124.787 Y123.263 E0.0109
G1 X124.883 Y123.241 E0.0162
G1 X124.979 Y123.228 E0.0214
G1 X125.075 Y123.223 E0.0266
G1 X125.171 Y123.223 E0.0318
G1 X224.733 Y123.223 E5.3963
G1 X225.381 Y123.366 E5.4321
G1 X225.411 Y123.462 E5.4375
G1 X225.433 Y123.558 E5.4428
G1 X225.447 Y123.654 E5.4480
G1 X225.451 Y123.750 E5.4532
G1 X225.451 Y123.846 E5.4584
G1 X225.451 Y226.154 E10.9709
G1 X225.451 Y226.250 E10.9761
G1 X225.447 Y226.346 E10.9812
G1 X225.433 Y226.442 E10.9865
G1 X225.411 Y226.538 E10.9918
G1 X225.381 Y226.634 E10.9972
G1 X225.309 Y226.706 E11.0027
G1 X225.213 Y226.737 E11.0081
G1 X225.117 Y226.759 E11.0134
G1 X225.021 Y226.772 E11.0186
G1 X224.925 Y226.777 E11.0238
G1 X224.829 Y226.777 E11.0290
G1 X125.171 Y226.777 E16.3987
G1 X125.075 Y226.777 E16.4039
G1 X124.979 Y226.772 E16.4090
G1 X124.883 Y226.759 E16.4143
G1 X124.787 Y226.737 E16.4196
G1 X124.691 Y226.706 E16.4250
G1 X124.619 Y226.634 E16.4305
G1 X124.589 Y226.538 E16.4359
G1 X124.567 Y226.442 E16.4412
G1 X124.553 Y226.346 E16.4464
G1 X124.549 Y226.250 E16.4516
G1 X124.549 Y226.154 E16.4568
G1 X124.549 Y123.846 E21.9693
G1 X124.549 Y123.750 E21.9745
G1 X124.553 Y123.654 E21.9797
G1 X124.567 Y123.558 E21.9849
G1 X124.589 Y123.462 E21.9902
G1 X124.619 Y123.366 E21.9956
G92 E0
G1 E-1.0000 F1800
G1 Z1.150 F1002
; tool H0.150 W0.600
; inner perimeter
G1 X127.751 Y127.863 F4800
G1 Z0.150 F1002
G1 E0.0000 F1800
G92 E0
G1 X128.709 Y127.863 E0.0322 F601
G1 X129.188 Y128.692 E0.0645
G1 X128.709 Y129.522 E0.0967
G1 X127.751 Y129.522 E0.1290
G1 X127.273 Y128.692 E0.1612
G1 X127.751 Y127.863 E0.1935
; outer perimeter
G1 X127.405 Y127.263 F4800
G92 E0
G1 X129.055 Y127.263 E0.0556 F400
G1 X129.880 Y128.692 E0.1112
G1 X129.055 Y130.122 E0.1667
G1 X127.405 Y130.122 E0.2223
G1 X126.580 Y128.692 E0.2779
G1 X127.405 Y127.263 E0.3335
; gap fill
G1 X128.379 Y128.379 F4800
G92 E0
G1 X128.454 Y128.454 E0.0036 F641
G1 X128.592 Y128.692 E0.0128
G1 X128.411 Y129.006 E0.0250
G1 X128.157 Y129.006 E0.0336
G1 X127.902 Y128.751 E0.0457
G92 E0
G1 E-1.0000 F1800
G1 Z1.150 F1002
; inner perimeter
G1 X127.751 Y131.721 F4800
G1 Z0.150 F1002
G1 E0.0000 F1800
G92 E0
G1 X128.709 Y131.721 E0.0322 F601
G1 X129.188 Y132.550 E0.0645
G1 X128.709 Y133.379 E0.0967
G1 X127.751 Y133.379 E0.1290
G1 X127.273 Y132.550 E0.1612
G1 X127.751 Y131.721 E0.1935
; outer perimeter
G1 X127.405 Y131.121 F4800
G92 E0
G1 X129.055 Y131.121 E0.0556 F400
G1 X129.880 Y132.550 E0.1112
G1 X129.055 Y133.979 E0.1667
G1 X127.405 Y133.979 E0.2223
G1 X126.580 Y132.550 E0.2779
G1 X127.405 Y131.121 E0.3335
; gap fill
G1 X128.029 Y132.272 F4800
G92 E0
G1 X128.488 Y132.730 E0.0218 F641
G92 E0
G1 E-1.0000 F1800
G1 Z1.150 F1002
; inner perimeter
G1 X130.614 Y134.479 F4800
G1 Z0.150 F1002
G1 E0.0000 F1800
G92 E0
G1 X131.092 Y133.650 E0.0322 F601
G1 X132.050 Y133.650 E0.0645
G1 X132.529 Y134.479 E0.0967
G1 X132.050 Y135.308 E0.1290
G1 X131.092 Y135.308 E0.1612
G1 X130.614 Y134.479 E0.1935
; outer perimeter
G1 X129.921 Y134.479 F4800
G92 E0
G1 X130.746 Y133.050 E0.0556 F400
G1 X132.396 Y133.050 E0.1112
G1 X133.221 Y134.479 E0.1667
G1 X132.396 Y135.908 E0.2223
G1 X130.746 Y135.908 E0.2779
G1 X129.921 Y134.479 E0.3335
; gap fill
G1 X131.379 Y134.773 F4800
G92 E0
G1 X131.398 Y134.792 E0.0009 F641
G1 X131.752 Y134.792 E0.0128
G1 X131.933 Y134.479 E0.0250
G1 X131.932 Y134.477 E0.0251
G1 X131.620 Y134.166 E0.0399
G92 E0
G1 E-1.0000 F1800
G1 Z1.150 F1002
; inner perimeter
G1 X132.050 Y131.450 F4800
G1 Z0.150 F1002
G1 E0.0000 F1800
G92 E0
G1 X131.092 Y131.450 E0.0322 F601
G1 X130.614 Y130.621 E0.0645
G1 X131.092 Y129.792 E0.0967
G1 X132.050 Y129.792 E0.1290
G1 X132.529 Y130.621 E0.1612
G1 X132.050 Y131.450 E0.1935
; outer perimeter
G1 X132.396 Y132.050 F4800
G92 E0
G1 X130.746 Y132.050 E0.0556 F400
G1 X129.921 Y130.621 E0.1112
G1 X130.746 Y129.192 E0.1667
G1 X132.396 Y129.192 E0.2223
G1 X133.221 Y130.621 E0.2779
G1 X132.396 Y132.050 E0.3335
; gap fill
G1 X131.763 Y130.915 F4800
G92 E0
G1 X131.305 Y130.456 E0.0218 F641
G92 E0
G1 E-1.0000 F1800
G1 Z1.150 F1002
; inner perimeter
G1 X131.092 Y127.593 F4800
G1 Z0.150 F1002
G1 E0.0000 F1800
G92 E0
G1 X130.614 Y126.763 E0.0322 F601
G1 X131.092 Y125.934 E0.0645
G1 X132.050 Y125.934 E0.0967
G1 X132.529 Y126.763 E0.1290
G1 X132.050 Y127.593 E0.1612
G1 X131.092 Y127.593 E0.1935
; outer perimeter
G1 X130.746 Y128.193 F4800
G92 E0
G1 X129.921 Y126.763 E0.0556 F400
G1 X130.746 Y125.334 E0.1112
G1 X132.396 Y125.334 E0.1667
G1 X133.221 Y126.763 E0.2223
G1 X132.396 Y128.193 E0.2779
G1 X130.746 Y128.193 E0.3335
; gap fill
G1 X131.904 Y126.813 F4800
G92 E0
G1 X131.541 Y126.450 E0.0173 F641
G92 E0
G1 E-1.0000 F1800
G1 Z1.150 F1002
; inner perimeter
G1 X134.433 Y127.863 F4800
G1 Z0.150 F1002
G1 E0.0000 F1800
G92 E0
G1 X135.391 Y127.863 E0.0322 F601
G1 X135.869 Y128.692 E0.0645
G1 X135.391 Y129.522 E0.0967
G1 X134.433 Y129.522 E0.1290
G1 X133.955 Y128.692 E0.1612
G1 X134.433 Y127.863 E0.1935
; outer perimeter
G1 X134.087 Y127.263 F4800
G92 E0
G1 X135.737 Y127.263 E0.0556 F400
G1 X136.562 Y128.692 E0.1112
G1 X135.737 Y130.122 E0.1667
G1 X134.087 Y130.122 E0.2223
G1 X133.262 Y128.692 E0.2779
G1 X134.087 Y127.263 E0.3335
; gap fill
G1 X134.580 Y128.641 F4800
G92 E0
G1 X134.945 Y129.006 E0.0174 F641
G92 E0
G1 E-1.0000 F1800
G1 Z1.150 F1002
; inner perimeter
G1 X135.391 Y131.721 F4800
G1 Z0.150 F1002
G1 E0.0000 F1800
G92 E0
G1 X135.869 Y132.550 E0.0322 F601
G1 X135.391 Y133.379 E0.0645
G1 X134.433 Y133.379 E0.0967
G1 X133.955 Y132.550 E0.1290
G1 X134.433 Y131.721 E0.1612
G1 X135.391 Y131.721 E0.1935
; outer perimeter
G1 X135.737 Y131.121 F4800
G92 E0
G1 X136.562 Y132.550 E0.0556 F400
G1 X135.737 Y133.979 E0.1112
G1 X134.087 Y133.979 E0.1667
G1 X133.262 Y132.550 E0.2223
G1 X134.087 Y131.121 E0.2779
G1 X135.737 Y131.121 E0.3335
; gap fill
G1 X134.783 Y132.237 F4800
G92 E0
G1 X135.209 Y132.663 E0.0203 F641
G92 E0
G1 E-1.0000 F1800
G1 Z1.150 F1002
; inner perimeter
G1 X137.774 Y133.650 F4800
G1 Z0.150 F1002
G1 E0.0000 F1800
G92 E0
G1 X138.732 Y133.650 E0.0322 F601
G1 X139.210 Y134.479 E0.0645
G1 X138.732 Y135.308 E0.0967
G1 X137.774 Y135.308 E0.1290
G1 X137.295 Y134.479 E0.1612
G1 X137.774 Y133.650 E0.1935
; outer perimeter
G1 X137.428 Y133.050 F4800
G92 E0
G1 X139.078 Y133.050 E0.0556 F400
G1 X139.903 Y134.479 E0.1112
G1 X139.078 Y135.908 E0.1667
G1 X137.428 Y135.908 E0.2223
G1 X136.603 Y134.479 E0.2779
G1 X137.428 Y133.050 E0.3335
; gap fill
G1 X138.408 Y134.166 F4800
G92 E0
G1 X138.468 Y134.226 E0.0028 F641
G1 X138.615 Y134.479 E0.0127
G1 X138.434 Y134.792 E0.0249
G1 X138.186 Y134.792 E0.0332
G1 X137.916 Y134.522 E0.0461
G92 E0
G1 E-1.0000 F1800
G1 Z1.150 F1002
; inner perimeter
G1 X135.391 Y135.579 F4800
G1 Z0.150 F1002
G1 E0.0000 F1800
G92 E0
G1 X135.869 Y136.408 E0.0322 F601
G1 X135.391 Y137.237 E0.0645
G1 X134.433 Y137.237 E0.0967
G1 X133.955 Y136.408 E0.1290
G1 X134.433 Y135.579 E0.1612
G1 X135.391 Y135.579 E0.1935
; outer perimeter
G1 X135.737 Y134.979 F4800
G92 E0
G1 X136.562 Y136.408 E0.0556 F400
G1 X135.737 Y137.837 E0.1112
G1 X134.087 Y137.837 E0.1667
G1 X133.262 Y136.408 E0.2223
G1 X134.087 Y134.979 E0.2779
G1 X135.737 Y134.979 E0.3335
; gap fill
G1 X134.609 Y136.306 F4800
G92 E0
G1 X135.024 Y136.721 E0.0198 F641
G92 E0
G1 E-1.0000 F1800
G1 Z1.150 F1002
; inner perimeter
G1 X135.391 Y139.436 F4800
G1 Z0.150 F1002
G1 E0.0000 F1800
G92 E0
G1 X135.869 Y140.266 E0.0322 F601
G1 X135.391 Y141.095 E0.0645
G1 X134.433 Y141.095 E0.0967
G1 X133.955 Y140.266 E0.1290
G1 X134.433 Y139.436 E0.1612
G1 X135.391 Y139.436 E0.1935
; outer perimeter
G1 X135.737 Y138.836 F4800
G92 E0
G1 X136.562 Y140.266 E0.0556 F400
G1 X135.737 Y141.695 E0.1112
G1 X134.087 Y141.695 E0.1667
G1 X133.262 Y140.266 E0.2223
G1 X134.087 Y138.836 E0.2779
G1 X135.737 Y138.836 E0.3335
; gap fill
G1 X134.861 Y139.952 F4800
G92 E0
G1 X135.237 Y140.329 E0.0179 F641
G92 E0
G1 E-1.0000 F1800
G1 Z1.150 F1002
; inner perimeter
G1 X137.774 Y141.365 F4800
G1 Z0.150 F1002
G1 E0.0000 F1800
G92 E0
G1 X138.732 Y141.365 E0.0322 F601
G1 X139.210 Y142.195 E0.0645
G1 X138.732 Y143.024 E0.0967
G1 X137.774 Y143.024 E0.1290
G1 X137.295 Y142.195 E0.1612
G1 X137.774 Y141.365 E0.1935
; outer perimeter
G1 X137.428 Y140.765 F4800
G92 E0
G1 X139.078 Y140.765 E0.0556 F400
G1 X139.903 Y142.195 E0.1112
G1 X139.078 Y143.624 E0.1667
G1 X137.428 Y143.624 E0.2223
G1 X136.603 Y142.195 E0.2779
G1 X137.428 Y140.765 E0.3335
; gap fill
G1 X137.913 Y142.156 F4800
G92 E0
G1 X138.265 Y142.508 E0.0167 F641
G92 E0
G1 E-1.0000 F1800
G1 Z1.150 F1002
; inner perimeter
G1 X138.732 Y145.223 F4800
G1 Z0.150 F1002
G1 E0.0000 F1800
G92 E0
G1 X139.210 Y146.052 E0.0322 F601
G1 X138.732 Y146.882 E0.0645
G1 X137.774 Y146.882 E0.0967
G1 X137.295 Y146.052 E0.1290
G1 X137.774 Y145.223 E0.1612
G1 X138.732 Y145.223 E0.1935
; outer perimeter
G1 X139.078 Y144.623 F4800
G92 E0
G1 X139.903 Y146.052 E0.0556 F400
G1 X139.078 Y147.482 E0.1112
G1 X137.428 Y147.482 E0.1667
G1 X136.603 Y146.052 E0.2223
G1 X137.428 Y144.623 E0.2779
G1 X139.078 Y144.623 E0.3335
; gap fill
G1 X138.102 Y145.739 F4800
G92 E0
G1 X138.542 Y146.179 E0.0209 F641
G92 E0
G1 E-1.0000 F1800
G1 Z1.150 F1002
; inner perimeter
G1 X141.115 Y147.152 F4800
G1 Z0.150 F1002
G1 E0.0000 F1800
G92 E0
G1 X142.073 Y147.152 E0.0322 F601
G1 X142.551 Y147.981 E0.0645
G1 X142.073 Y148.810 E0.0967
G1 X141.115 Y148.810 E0.1290
G1 X140.636 Y147.981 E0.1612
G1 X141.115 Y147.152 E0.1935
; outer perimeter
G1 X140.769 Y146.552 F4800
G92 E0
G1 X142.419 Y146.552 E0.0556 F400
G1 X143.244 Y147.981 E0.1112
G1 X142.419 Y149.410 E0.1667
G1 X140.769 Y149.410 E0.2223
G1 X139.944 Y147.981 E0.2779
G1 X140.769 Y146.552 E0.3335
; gap fill
G1 X141.728 Y147.668 F4800
G92 E0
G1 X141.838 Y147.778 E0.0052 F641
G1 X141.956 Y147.981 E0.0131
G1 X141.775 Y148.294 E0.0253
